images/reference/twitch.svg

<svg viewBox="0 0 128 134" xmlns="http://www.w3.org/2000/svg"><path d="m89 77-9 23v94h32v17h18l17-17h26l35-35v-82zm107 76-20 20h-32l-17 17v-17h-27v-84h96zm-20-41v35h-12v-35zm-32 0v35h-12v-35z" fill="#6441a4" fill-rule="evenodd" transform="translate(-80 -77)"/></svg>

<svg id="Layer_1" data-name="Layer 1" xmlns="http://www.w3.org/2000/svg" viewBox="0 0 128 134"><defs><style>.cls-1{fill:#6441a4;fill-rule:evenodd;}</style></defs><title>Glitch</title><path class="cls-1" d="M89,77l-9,23v94h32v17h18l17-17h26l35-35V77H89Zm107,76-20,20H144l-17,17V173H100V89h96v64Zm-20-41v35H164V112h12Zm-32,0v35H132V112h12Z" transform="translate(-80 -77)"/></svg>
